Newaita-dark/.DP/22/network-vpn.svg

<?xml version="1.0" encoding="UTF-8"?>
<svg xmlns="http://www.w3.org/2000/svg" xmlns:xlink="http://www.w3.org/1999/xlink" width="22pt" height="22pt" viewBox="0 0 22 22" version="1.1">
<g id="surface1">
<path style=" stroke:none;fill-rule:nonzero;fill:rgb(74.117649%,74.117649%,74.117649%);fill-opacity:1;" d="M 6.292969 6.539062 C 3.8125 6.539062 1.820312 8.566406 1.820312 11.085938 C 1.820312 13.605469 3.8125 15.636719 6.292969 15.636719 L 6.441406 15.636719 C 8.453125 15.636719 10.144531 14.300781 10.710938 12.453125 L 13.644531 12.453125 L 13.644531 13.816406 C 13.644531 14.320312 14.050781 14.726562 14.554688 14.726562 L 15.464844 14.726562 C 15.96875 14.726562 16.371094 14.320312 16.371094 13.816406 L 16.371094 12.453125 L 17.28125 12.453125 L 17.28125 14.726562 C 17.28125 15.230469 17.6875 15.636719 18.191406 15.636719 L 19.101562 15.636719 C 19.605469 15.636719 20.011719 15.230469 20.011719 14.726562 L 20.011719 12.453125 C 20.515625 12.453125 20.921875 12.046875 20.921875 11.542969 L 20.921875 10.632812 C 20.921875 10.128906 20.515625 9.722656 20.011719 9.722656 L 10.710938 9.722656 C 10.144531 7.875 8.453125 6.539062 6.441406 6.539062 Z M 6.335938 9.269531 L 6.398438 9.269531 C 7.386719 9.269531 8.1875 10.078125 8.1875 11.085938 C 8.1875 12.09375 7.386719 12.90625 6.398438 12.90625 L 6.335938 12.90625 C 5.347656 12.90625 4.546875 12.09375 4.546875 11.085938 C 4.546875 10.078125 5.347656 9.269531 6.335938 9.269531 Z M 6.335938 9.269531 "/>
</g>
</svg>

<svg xmlns="http://www.w3.org/2000/svg" width="22pt" height="22pt" viewBox="0 0 22 22"><path d="M6.293 6.54c-2.48 0-4.473 2.026-4.473 4.546 0 2.52 1.992 4.55 4.473 4.55h.148c2.012 0 3.704-1.335 4.27-3.183h2.934v1.363c0 .504.406.91.91.91h.91a.905.905 0 0 0 .906-.91v-1.363h.91v2.274c0 .503.407.91.91.91h.91c.504 0 .91-.407.91-.91v-2.274c.505 0 .91-.406.91-.91v-.91a.909.909 0 0 0-.91-.91h-9.3c-.566-1.848-2.258-3.184-4.27-3.184zm.043 2.73h.062a1.8 1.8 0 0 1 1.79 1.816c0 1.008-.801 1.82-1.79 1.82h-.062c-.988 0-1.79-.812-1.79-1.82a1.8 1.8 0 0 1 1.79-1.816zm0 0" fill="#bdbdbd"/></svg>
